src/pos-icons/fridge.svg

<svg height="24" viewBox="0 0 24 24" width="24" xmlns="http://www.w3.org/2000/svg"><path d="m7 2h10a2 2 0 0 1 2 2v5h-14v-5a2 2 0 0 1 2-2m12 17a2 2 0 0 1 -2 2v1h-2v-1h-6v1h-2v-1a2 2 0 0 1 -2-2v-9h14zm-11-14v2h2v-2zm0 7v3h2v-3z"/></svg>

<?xml version="1.0" encoding="UTF-8"?><!DOCTYPE svg PUBLIC "-//W3C//DTD SVG 1.1//EN" "http://www.w3.org/Graphics/SVG/1.1/DTD/svg11.dtd"><svg xmlns="http://www.w3.org/2000/svg" xmlns:xlink="http://www.w3.org/1999/xlink" version="1.1" id="mdi-fridge" width="24" height="24" viewBox="0 0 24 24"><path d="M7,2H17A2,2 0 0,1 19,4V9H5V4A2,2 0 0,1 7,2M19,19A2,2 0 0,1 17,21V22H15V21H9V22H7V21A2,2 0 0,1 5,19V10H19V19M8,5V7H10V5H8M8,12V15H10V12H8Z" /></svg>
